X:88
T: DA LAECHELT NUN WIEDER DER HIMMEL SO BLAU
N: F0197
O: Europa, Mitteleuropa, Deutschland
R: Moral - Lied, Vergaenglichkeit
M: 3/8
L: 1/16
K: F
F2 | c2cdcd | c2A2c2 | B2G2B2 | A4
F2 | c2cdcd | c2A2c2 | B2B2A2 | G4
G2 | c2c2d=B | c2G2c2 | e2e2fd | e4
c2 | f2fefd | c2A2c2 | B2A2G2 | F4

